public/images/pdIcon.svg

<svg width="130" height="125" viewBox="0 0 130 125" fill="none" xmlns="http://www.w3.org/2000/svg">
<ellipse cx="72.5" cy="62" rx="57.5" ry="56" fill="#00C0FF"/>
<circle cx="62.5" cy="62.5" r="62" fill="#0F1B34"/>
<circle cx="62.5" cy="62.5" r="62" fill="url(#paint0_linear_554_4448)"/>
<circle cx="62.5" cy="62.5" r="62" stroke="url(#paint1_linear_554_4448)"/>
<path d="M63.5495 30.1057C62.7355 27.2304 60.8364 25.8062 59.1271 26.0212C58.0869 26.1186 57.087 26.4687 56.2161 27.0406C55.3453 27.6125 54.6304 28.3884 54.135 29.2996C51.7474 34.674 56.8481 50.3134 57.4992 52.92C53.0497 66.2216 38.7516 91.3738 30.0968 97.0707C29.8777 97.206 29.6224 97.2722 29.3644 97.2606C29.1065 97.2491 28.8582 97.1602 28.6524 97.0059C28.4466 96.8515 28.2929 96.6389 28.2117 96.3962C28.1305 96.1534 28.1256 95.892 28.1976 95.6464C29.0658 92.9593 31.8061 88.7672 39.457 83.9034C39.9929 83.345 40.4913 82.7526 40.9493 82.1298C31.8603 86.51 20.0854 93.5773 27.1667 98.8442C27.6752 99.1923 28.2329 99.464 28.8217 99.6504C34.2479 101.639 41.8446 95.1359 49.4684 80.3832C57.5247 77.5529 65.8251 75.4572 74.2663 74.122C84.766 81.1893 91.7929 82.6404 96.568 80.8131C97.5123 80.4063 98.3586 79.8054 99.0508 79.0503C99.743 78.2952 100.265 77.4031 100.583 76.433C96.7037 81.1625 87.6148 77.8572 80.3708 73.3427C87.045 72.6172 93.9363 72.1872 96.9479 73.1277C100.746 74.3101 100.611 76.1643 100.583 76.433C100.858 75.8054 101 75.1286 101 74.4445C101 73.7604 100.858 73.0836 100.583 72.4559C97.382 67.2965 82.704 70.3062 77.3592 70.8436C69.7815 65.95 63.9825 58.7845 60.8092 50.3941C63.0068 42.0638 65.3401 36.0176 63.5223 30.0251M59.8868 47.465C58.6387 43.0311 56.9295 33.7066 58.8829 29.2996C58.962 29.1168 59.0835 28.9551 59.2375 28.8276C59.3916 28.7001 59.5739 28.6104 59.7696 28.5659C59.9652 28.5214 60.1688 28.5233 60.3636 28.5714C60.5584 28.6195 60.739 28.7125 60.8906 28.8428C65.313 32.7392 61.8673 40.3977 59.8868 47.465ZM71.4717 71.9722C64.0834 73.4252 56.8714 75.6501 49.9568 78.6096C53.5496 70.9572 56.5428 63.0425 58.91 54.9354C61.9419 61.3668 66.2191 67.146 71.4989 71.9454" fill="#00C0FF"/>
<defs>
<linearGradient id="paint0_linear_554_4448" x1="42.3535" y1="4.51228" x2="94.4793" y2="153.813" gradientUnits="userSpaceOnUse">
<stop offset="0.13584" stop-color="#08142E" stop-opacity="0"/>
<stop offset="0.612005" stop-color="#0A295A" stop-opacity="0.628674"/>
<stop offset="1" stop-color="#1654B0"/>
</linearGradient>
<linearGradient id="paint1_linear_554_4448" x1="1.06166e-06" y1="63" x2="90.1506" y2="51.8028" gradientUnits="userSpaceOnUse">
<stop stop-color="#00BFFE"/>
<stop offset="1" stop-color="#084196"/>
</linearGradient>
</defs>
</svg>

<svg xmlns="http://www.w3.org/2000/svg" width="130" height="125" fill="none"><ellipse cx="72.5" cy="62" fill="#00C0FF" rx="57.5" ry="56"/><circle cx="62.5" cy="62.5" r="62" fill="#0F1B34"/><circle cx="62.5" cy="62.5" r="62" fill="url(#a)"/><circle cx="62.5" cy="62.5" r="62" stroke="url(#b)"/><path fill="#00C0FF" d="M63.55 30.106c-.814-2.876-2.714-4.3-4.423-4.085a6.4 6.4 0 0 0-2.91 1.02 6.3 6.3 0 0 0-2.082 2.259c-2.388 5.374 2.713 21.013 3.364 23.62-4.45 13.302-18.747 38.454-27.402 44.15a1.28 1.28 0 0 1-1.445-.064 1.252 1.252 0 0 1-.455-1.36c.869-2.687 3.61-6.879 11.26-11.743a18 18 0 0 0 1.492-1.773c-9.089 4.38-20.864 11.447-13.782 16.714.508.348 1.066.62 1.655.806 5.426 1.989 13.023-4.514 20.646-19.267a141.5 141.5 0 0 1 24.798-6.261c10.5 7.067 17.527 8.518 22.302 6.691a7.3 7.3 0 0 0 2.483-1.763 7.2 7.2 0 0 0 1.532-2.617c-3.88 4.73-12.968 1.424-20.212-3.09 6.674-.726 13.565-1.156 16.577-.215 3.798 1.182 3.663 3.036 3.635 3.305a4.95 4.95 0 0 0 0-3.977c-3.201-5.16-17.879-2.15-23.224-1.612a42.08 42.08 0 0 1-16.55-20.45c2.198-8.33 4.531-14.376 2.713-20.369m-3.635 17.44c-1.248-4.434-2.958-13.758-1.004-18.165a1.26 1.26 0 0 1 .887-.734 1.29 1.29 0 0 1 1.12.277c4.423 3.896.977 11.555-1.003 18.622m11.585 24.507a107.3 107.3 0 0 0-21.515 6.638 163.6 163.6 0 0 0 8.953-23.675 54.3 54.3 0 0 0 12.589 17.01"/><defs><linearGradient id="a" x1="42.353" x2="94.479" y1="4.512" y2="153.813" gradientUnits="userSpaceOnUse"><stop offset=".136" stop-color="#08142E" stop-opacity="0"/><stop offset=".612" stop-color="#0A295A" stop-opacity=".629"/><stop offset="1" stop-color="#1654B0"/></linearGradient><linearGradient id="b" x1="0" x2="90.151" y1="63" y2="51.803" gradientUnits="userSpaceOnUse"><stop stop-color="#00BFFE"/><stop offset="1" stop-color="#084196"/></linearGradient></defs></svg>
